invoice-multiple.svg

<svg fill="currentColor" viewBox="0 0 24 24"><path d="M17 2H2v15h2V4h13zm4 20-2.5-1.68L16 22l-2.5-1.68L11 22l-2.5-1.68L6 22V6h15z"/></svg>

<svg  viewBox="0 0 24 24" fill="currentColor"><path  d="M17 2H2V17H4V4H17V2M21 22L18.5 20.32L16 22L13.5 20.32L11 22L8.5 20.32L6 22V6H21V22Z"/></svg>
